projects/ccf-eui/src/assets/icons/organ-icons/organ-icon-liver.svg

<svg width="64" height="64" viewBox="0 0 64 64" fill="currentColor" xmlns="http://www.w3.org/2000/svg">
<g clip-path="url(#clip0_1795_280)">
<path d="M35.7333 17.8987C33.1667 18.3339 30.7892 19.5275 28.9072 21.326C27.0251 23.1244 25.7246 25.4452 25.1733 27.9893C23.9359 32.768 25.1733 34.3893 23.9359 39.68C22.6986 44.9707 16.2559 42.6667 14.2293 45.4613C12.2026 48.256 12.6079 51.6267 9.32261 50.7307C6.03727 49.8347 3.13594 36.928 4.69327 30.6347C6.25061 24.3413 8.53327 20.9067 14.5919 18.1547C20.6506 15.4027 35.7333 17.8987 35.7333 17.8987Z" />
<path d="M59.7334 21.3333C59.7334 18.1973 46.5281 17.3013 42.1761 17.3013C37.8241 17.3013 29.8454 18.4533 27.2427 26.5387C24.6401 34.624 28.1814 41.1307 31.2534 40.576C34.3254 40.0213 35.6481 36.0533 38.6774 35.84C42.5535 35.1901 46.2139 33.6088 49.3441 31.232C52.6294 28.9493 59.7334 24.512 59.7334 21.3333Z" />
</g>
<defs>
<clipPath id="clip0_1795_280">
<rect width="64" height="64" />
</clipPath>
</defs>
</svg>

<svg xmlns="http://www.w3.org/2000/svg" width="64" height="64" fill="currentColor" viewBox="0 0 64 64"><g clip-path="url(#a)"><path d="M35.733 17.899a13.03 13.03 0 0 0-10.56 10.09c-1.237 4.779 0 6.4-1.237 11.691-1.237 5.29-7.68 2.987-9.707 5.781-2.026 2.795-1.621 6.166-4.906 5.27-3.286-.896-6.187-13.803-4.63-20.096 1.558-6.294 3.84-9.728 9.899-12.48s21.141-.256 21.141-.256"/><path d="M59.733 21.333c0-3.136-13.205-4.032-17.557-4.032s-12.33 1.152-14.933 9.238.938 14.592 4.01 14.037 4.395-4.523 7.424-4.736a24.3 24.3 0 0 0 10.667-4.608c3.285-2.283 10.39-6.72 10.39-9.899"/></g><defs><clipPath id="a"><path d="M0 0h64v64H0z"/></clipPath></defs></svg>
